X:1
T:The Two Little Sisters
M:2/4
L:1/4
K:G
 G/2G/2 A/2A/2| B A3/4 A/4| B d| e2| d B| G2| A F| D2| G/2G/2 A/2A/2|\
 B A3/4 A/4| B d| e3/2 e/2| d B| A G| A G| D3/2 D/2| G3/2 A/2| B3/2 A/2|\
 G g| e3/2 e/2| g g| B A| G- G|
